icons/svg/sport/field_hockey.svg

<?xml version="1.0" encoding="UTF-8" standalone="no"?>
<!-- Created with Inkscape (http://www.inkscape.org/) -->

<svg
   xmlns:dc="http://purl.org/dc/elements/1.1/"
   xmlns:cc="http://creativecommons.org/ns#"
   xmlns:rdf="http://www.w3.org/1999/02/22-rdf-syntax-ns#"
   xmlns:svg="http://www.w3.org/2000/svg"
   xmlns="http://www.w3.org/2000/svg"
   xmlns:sodipodi="http://sodipodi.sourceforge.net/DTD/sodipodi-0.dtd"
   xmlns:inkscape="http://www.inkscape.org/namespaces/inkscape"
   version="1.0"
   width="580"
   height="580"
   id="svg2"
   sodipodi:version="0.32"
   inkscape:version="0.91 r"
   sodipodi:docname="field_hockey.svg"
   inkscape:output_extension="org.inkscape.output.svg.inkscape">
  <metadata
     id="metadata2975">
    <rdf:RDF>
      <cc:Work
         rdf:about="">
        <dc:format>image/svg+xml</dc:format>
        <dc:type
           rdf:resource="http://purl.org/dc/dcmitype/StillImage" />
        <cc:license
           rdf:resource="http://web.resource.org/cc/PublicDomain" />
        <dc:language>en</dc:language>
        <dc:title />
      </cc:Work>
    </rdf:RDF>
  </metadata>
  <sodipodi:namedview
     inkscape:window-height="1004"
     inkscape:window-width="1920"
     inkscape:pageshadow="2"
     inkscape:pageopacity="0.0"
     guidetolerance="10.0"
     gridtolerance="10.0"
     objecttolerance="10.0"
     borderopacity="1.0"
     bordercolor="#666666"
     pagecolor="#ffffff"
     id="base"
     inkscape:zoom="0.92167712"
     inkscape:cx="293.74815"
     inkscape:cy="431.95689"
     inkscape:window-x="1680"
     inkscape:window-y="0"
     inkscape:current-layer="svg2"
     showgrid="false"
     inkscape:window-maximized="1" />
  <defs
     id="defs4">
    <inkscape:perspective
       sodipodi:type="inkscape:persp3d"
       inkscape:vp_x="0 : 290 : 1"
       inkscape:vp_y="0 : 1000 : 0"
       inkscape:vp_z="580 : 290 : 1"
       inkscape:persp3d-origin="290 : 193.33333 : 1"
       id="perspective10" />
  </defs>
  <g
     id="g1327">
    <path
       d="M 66.275,1.768 C 24.94,1.768 1.704,23.139 1.704,66.804 l 0,450.123 c 0,40.844 20.895,62.229 62.192,62.229 l 452.024,0 c 41.307,0 62.229,-20.315 62.229,-62.229 l 0,-450.123 c 0,-42.601 -20.922,-65.036 -63.521,-65.036 -0.004,0 -448.495,-0.143 -448.353,0 z"
       style="fill:#111111;stroke:#eeeeee;stroke-width:3.40799999"
       id="path1329"
       inkscape:connector-curvature="0" />
  </g>
  <circle
     style="fill:#ffffff;fill-opacity:1;stroke:#ffffff;stroke-width:36.45314026;stroke-miterlimit:10;stroke-opacity:1"
     stroke-miterlimit="10"
     cx="137.46399"
     cy="277.56567"
     id="ellipse3"
     r="77.328789" />
  <path
     inkscape:connector-curvature="0"
     d="m 569.33768,107.74334 -34.3489,0 -70.3335,243.71365 c -11.4496,39.25589 -47.4342,67.06214 -88.3257,67.06214 l -148.8453,0 c -31.0776,0 -57.24816,26.1706 -57.24816,57.24818 0,31.07758 26.17056,57.24817 57.24816,57.24817 l 127.5817,0 c 55.6125,0 104.6823,-35.98457 119.4033,-89.96142 l 6.5426,-24.53493 0,0 88.3258,-310.77579 z m -202.8221,392.5589 -114.4963,0 0,-49.06986 114.4963,0 0,49.06986 z"
     id="path7"
     style="fill:#ffffff;fill-opacity:1" />
  <g
     transform="matrix(0.887797,0,0,1.1261639,140.95236,-258.41565)"
     id="g3791-1"
     style="stroke:#ffffff;stroke-width:23.7142601;stroke-miterlimit:4;stroke-dasharray:none;stroke-opacity:1">
    <path
       sodipodi:nodetypes="cc"
       id="path3793-2"
       d="m 219.43574,376.07932 0.44048,-111.44093"
       style="fill:none;stroke:#ffffff;stroke-width:23.7142601;stroke-linecap:round;stroke-linejoin:round;stroke-miterlimit:4;stroke-dasharray:none;stroke-opacity:1"
       inkscape:connector-curvature="0" />
    <path
       sodipodi:nodetypes="cc"
       id="path3795-0"
       d="m 285.43186,303.99208 -35.23824,72.23839"
       style="fill:none;stroke:#ffffff;stroke-width:23.7142601;stroke-linecap:round;stroke-linejoin:round;stroke-miterlimit:4;stroke-dasharray:none;stroke-opacity:1"
       inkscape:connector-curvature="0" />
    <path
       sodipodi:nodetypes="cc"
       id="path3797-3"
       d="m 329.55523,332.03152 -43.16684,44.0478"
       style="fill:none;stroke:#ffffff;stroke-width:23.7142601;stroke-linecap:round;stroke-linejoin:round;stroke-miterlimit:4;stroke-dasharray:none;stroke-opacity:1"
       inkscape:connector-curvature="0" />
    <path
       sodipodi:nodetypes="cc"
       style="fill:none;stroke:#ffffff;stroke-width:23.7142601;stroke-linecap:round;stroke-linejoin:round;stroke-miterlimit:4;stroke-dasharray:none;stroke-opacity:1"
       d="m 159.34959,300.90874 30.39298,75.32173"
       id="path3799-8"
       inkscape:connector-curvature="0" />
    <path
       sodipodi:nodetypes="cc"
       style="fill:none;stroke:#ffffff;stroke-width:23.7142601;stroke-linecap:round;stroke-linejoin:round;stroke-miterlimit:4;stroke-dasharray:none;stroke-opacity:1"
       d="m 110.82144,333.35295 42.72636,42.72637"
       id="path3801-1"
       inkscape:connector-curvature="0" />
  </g>
</svg>

<svg width="580" height="580" viewBox="0 0 580 580" fill="none" xmlns="http://www.w3.org/2000/svg">
<g clip-path="url(#clip0)">
<path d="M66.275 1.76815C24.94 1.76815 1.70398 23.1391 1.70398 66.8041V516.927C1.70398 557.771 22.599 579.156 63.896 579.156H515.92C557.227 579.156 578.149 558.841 578.149 516.927V66.8041C578.149 24.2031 557.227 1.76815 514.628 1.76815C514.624 1.76815 66.133 1.62515 66.275 1.76815V1.76815Z" fill="#111111" stroke="#EEEEEE" stroke-width="3.408"/>
<path d="M137.464 354.894C180.172 354.894 214.793 320.273 214.793 277.566C214.793 234.858 180.172 200.237 137.464 200.237C94.7565 200.237 60.1353 234.858 60.1353 277.566C60.1353 320.273 94.7565 354.894 137.464 354.894Z" fill="white" stroke="white" stroke-width="36.4531" stroke-miterlimit="10"/>
<path d="M569.338 107.743H534.989L464.655 351.457C453.206 390.713 417.221 418.519 376.33 418.519H227.484C196.407 418.519 170.236 444.69 170.236 475.767C170.236 506.845 196.407 533.015 227.484 533.015H355.066C410.678 533.015 459.748 497.031 474.469 443.054L481.012 418.519L569.338 107.743V107.743ZM366.516 500.302H252.019V451.232H366.516V500.302Z" fill="white"/>
<path d="M335.767 165.111L336.158 39.6104" stroke="white" stroke-width="23.7119" stroke-linecap="round" stroke-linejoin="round"/>
<path d="M394.358 83.9292L363.074 165.281" stroke="white" stroke-width="23.7119" stroke-linecap="round" stroke-linejoin="round"/>
<path d="M433.531 115.506L395.207 165.111" stroke="white" stroke-width="23.7119" stroke-linecap="round" stroke-linejoin="round"/>
<path d="M282.422 80.4565L309.405 165.281" stroke="white" stroke-width="23.7119" stroke-linecap="round" stroke-linejoin="round"/>
<path d="M239.339 116.994L277.272 165.111" stroke="white" stroke-width="23.7119" stroke-linecap="round" stroke-linejoin="round"/>
</g>
<defs>
<clipPath id="clip0">
<path d="M0 0H580V580H0V0Z" fill="white"/>
</clipPath>
</defs>
</svg>
